src/_assets/_icons/_figma/icon-lifebuoy.svg

<svg fill="none" height="24" width="24" xmlns="http://www.w3.org/2000/svg" xmlns:xlink="http://www.w3.org/1999/xlink"><radialGradient id="a" cx="0" cy="0" gradientTransform="matrix(7.03495 0 0 7.01009 12 11.976)" gradientUnits="userSpaceOnUse" r="1"><stop offset=".573" stop-color="#b00"/><stop offset="1" stop-color="#d91330"/></radialGradient><circle cx="12" cy="12" r="8.5" stroke="#fff"/><path d="m6.683 6.674c-2.91 2.9-2.91 7.7-.003 10.6 2.91 2.968 7.73 2.968 10.64 0 2.907-2.9 2.907-7.7-.003-10.6-2.909-2.899-7.725-2.899-10.634 0zm2.36 2.291a4.226 4.226 0 0 1 5.977-.003c1.604 1.662 1.651 4.315.003 5.957a4.226 4.226 0 0 1 -5.98 0 4.186 4.186 0 0 1 0-5.954z" fill="url(#a)" stroke="#800" stroke-miterlimit="10"/><path d="m12.5 8 .5-4h-2l.5 4zm-1 8-.5 4h2l-.5-4zm-3.5-4.5-4-.5v2l4-.5zm8 1 4 .5v-2l-4 .5z" fill="#fff" stroke="#fff" stroke-linejoin="round"/></svg>

<?xml version="1.0" encoding="utf-8"?>
<!-- Generator: Adobe Illustrator 27.6.1, SVG Export Plug-In . SVG Version: 6.00 Build 0)  -->
<svg version="1.1" id="Layer_1" xmlns="http://www.w3.org/2000/svg" xmlns:xlink="http://www.w3.org/1999/xlink" x="0px" y="0px"
	 viewBox="0 0 24 24" style="enable-background:new 0 0 24 24;" xml:space="preserve">
<style type="text/css">
	.st0{fill:none;stroke:#FFFFFF;}
	.st1{fill:url(#SVGID_1_);stroke:#880000;stroke-miterlimit:10;}
	.st2{fill:#FFFFFF;stroke:#FFFFFF;stroke-linejoin:round;}
</style>
<circle class="st0" cx="12" cy="12" r="8.5"/>
<radialGradient id="SVGID_1_" cx="-350.0038" cy="269.6199" r="1" gradientTransform="matrix(7.0349 0 0 -7.0101 2474.2595 1902.0356)" gradientUnits="userSpaceOnUse">
	<stop  offset="0.573" style="stop-color:#BB0000"/>
	<stop  offset="1" style="stop-color:#D91330"/>
</radialGradient>
<path class="st1" d="M6.7,6.7c-2.9,2.9-2.9,7.7,0,10.6c2.9,3,7.7,3,10.6,0c2.9-2.9,2.9-7.7,0-10.6C14.4,3.8,9.6,3.8,6.7,6.7z M9,9
	c1.6-1.7,4.3-1.7,6,0c0,0,0,0,0,0c1.6,1.7,1.7,4.3,0,6c-1.6,1.7-4.3,1.7-6,0c0,0,0,0,0,0C7.4,13.3,7.4,10.6,9,9C9,9,9,9,9,9z"/>
<path class="st2" d="M12.5,8L13,4h-2l0.5,4H12.5z M11.5,16L11,20h2l-0.5-4H11.5z M8,11.5L4,11v2l4-0.5V11.5z M16,12.5l4,0.5v-2
	l-4,0.5V12.5z"/>
</svg>
